openmetadata-ui/src/main/resources/ui/src/assets/svg/ic-issues.svg

<svg width="16" height="16" viewBox="0 0 16 16" fill="none" xmlns="http://www.w3.org/2000/svg">
<path d="M6.75 13.25C6.75 13.4226 6.88994 13.5625 7.0625 13.5625H8.9375C9.11006 13.5625 9.25 13.4226 9.25 13.25V11.375C9.25 11.2024 9.11006 11.0625 8.9375 11.0625H7.0625C6.88994 11.0625 6.75 11.2024 6.75 11.375V13.25ZM7.375 11.6875H8.625V12.9375H7.375V11.6875Z" fill="#37352F"/>
<path d="M7.0625 9.8125H8.9375C9.11006 9.8125 9.25 9.67259 9.25 9.5V4.8125C9.25 4.63991 9.11006 4.5 8.9375 4.5H7.0625C6.88994 4.5 6.75 4.63991 6.75 4.8125V9.5C6.75 9.67259 6.88994 9.8125 7.0625 9.8125ZM7.375 5.125H8.625V9.1875H7.375V5.125Z" fill="#37352F"/>
<path d="M8 15.4375C8.17259 15.4375 8.3125 15.2976 8.3125 15.125C8.3125 14.9524 8.17259 14.8125 8 14.8125C7.82741 14.8125 7.6875 14.9524 7.6875 15.125C7.6875 15.2976 7.82741 15.4375 8 15.4375Z" fill="#37352F"/>
<path d="M9.51203 1.46375C9.21116 0.907844 8.63178 0.5625 8 0.5625C7.36822 0.5625 6.78884 0.907844 6.48891 1.46209L0.206875 12.901C0.0715313 13.1505 0 13.4333 0 13.7188C0 14.6665 0.771031 15.4375 1.71875 15.4375H6.59375C6.76631 15.4375 6.90625 15.2976 6.90625 15.125C6.90625 14.9524 6.76631 14.8125 6.59375 14.8125H1.71875C1.11566 14.8125 0.625 14.3218 0.625 13.7188C0.625 13.537 0.670375 13.3573 0.7555 13.2004L7.03766 1.76125C7.22919 1.40734 7.59794 1.1875 8 1.1875C8.40206 1.1875 8.77081 1.40734 8.96325 1.76294L15.2437 13.199C15.3296 13.3573 15.375 13.537 15.375 13.7188C15.375 14.3218 14.8843 14.8125 14.2812 14.8125H9.40625C9.23369 14.8125 9.09375 14.9524 9.09375 15.125C9.09375 15.2976 9.23369 15.4375 9.40625 15.4375H14.2812C15.229 15.4375 16 14.6665 16 13.7188C16 13.4333 15.9285 13.1505 15.7923 12.8996L9.51203 1.46375Z" fill="#37352F"/>
</svg>

<svg xmlns="http://www.w3.org/2000/svg" width="16" height="16" fill="none"><path fill="#37352F" d="M6.75 13.25c0 .173.14.313.313.313h1.875c.172 0 .312-.14.312-.313v-1.875a.313.313 0 0 0-.313-.313H7.063a.313.313 0 0 0-.313.313v1.875Zm.625-1.563h1.25v1.25h-1.25v-1.25ZM7.063 9.813h1.875c.172 0 .312-.14.312-.313V4.812a.313.313 0 0 0-.313-.312H7.063a.313.313 0 0 0-.313.313V9.5c0 .173.14.313.313.313Zm.312-4.688h1.25v4.063h-1.25V5.125ZM8 15.438a.312.312 0 1 0 0-.625.312.312 0 0 0 0 .624Z"/><path fill="#37352F" d="M9.512 1.464a1.718 1.718 0 0 0-3.023-.002L.207 12.901a1.72 1.72 0 0 0 1.512 2.537h4.875a.313.313 0 0 0 0-.626H1.719A1.095 1.095 0 0 1 .755 13.2L7.038 1.761a1.093 1.093 0 0 1 1.925.002l6.28 11.436a1.093 1.093 0 0 1-.962 1.614H9.406a.313.313 0 0 0 0 .624h4.875a1.72 1.72 0 0 0 1.511-2.537L9.512 1.464Z"/></svg>
